img/soon/comet.svg

<svg width="93" height="87" viewBox="0 0 93 87" fill="none" xmlns="http://www.w3.org/2000/svg">
<path d="M58.329 39.6587C58.2062 41.2369 59.6852 42.6214 60.9231 43.3774C62.3784 44.261 64.3252 43.2545 65.4923 42.2906C67.1051 40.9613 68.7258 39.5327 70.3544 38.005C74.5408 34.0831 78.2862 30.6921 81.5906 27.8319C84.4824 25.3323 87.7143 26.386 89.042 29.8164C89.576 31.1961 88.872 32.8593 87.9364 33.8469C86.7142 35.1384 85.1124 36.6678 83.131 38.4349C67.5886 52.3204 52.1203 66.2562 36.726 80.2424C31.8623 84.662 26.2678 86.7363 19.9425 86.4654C18.2131 86.3929 16.5499 86.1189 14.9528 85.6432C10.2687 84.254 6.56108 81.6111 3.82999 77.7145C2.57784 75.9284 2.06753 74.1565 1.05164 72.361C0.670482 71.69 0.421619 70.9403 0.305067 70.1119C-0.0130879 67.806 -0.0823902 65.601 0.0971628 63.4968C0.601171 57.5778 3.1543 52.5803 7.75653 48.5041C16.8602 40.4368 25.6173 32.5412 34.028 24.8173C35.1242 23.8108 36.8772 22.0767 38.4081 22.1003C39.2555 22.1129 40.0918 22.2311 40.9171 22.4547C42.0007 22.7508 42.689 23.5179 42.982 24.7558C43.4702 26.8349 42.9536 28.5391 41.4322 29.8684C39.6036 31.4607 37.6332 32.8971 36.2629 34.9289C35.5888 35.9338 35.4313 36.9702 35.7904 38.038C36.8016 41.0337 39.8776 42.1347 42.4811 40.1407C43.6025 39.2807 44.8295 38.2475 46.162 37.041C58.1322 26.1923 70.6379 14.8694 83.6791 3.07244C84.5611 2.27548 85.4526 1.53364 86.3535 0.846933C88.1301 -0.509165 89.9871 0.0153214 91.5133 1.26274C93.8616 3.18585 93.1907 6.27606 91.1494 8.10466C82.6537 15.7152 74.1675 23.3352 65.6907 30.9646C63.5959 32.8515 61.5138 34.8124 59.4442 36.8473C58.8016 37.4805 58.4298 38.4176 58.329 39.6587ZM36.1779 65.1789C36.1779 63.2795 35.8038 61.3987 35.0769 59.644C34.3501 57.8892 33.2847 56.2947 31.9416 54.9517C30.5986 53.6086 29.0041 52.5432 27.2493 51.8164C25.4945 51.0895 23.6138 50.7154 21.7144 50.7154C17.8784 50.7154 14.1996 52.2392 11.4872 54.9517C8.77476 57.6641 7.25094 61.3429 7.25094 65.1789C7.25094 69.0148 8.77476 72.6937 11.4872 75.4061C14.1996 78.1185 17.8784 79.6424 21.7144 79.6424C23.6138 79.6424 25.4945 79.2682 27.2493 78.5414C29.0041 77.8145 30.5986 76.7492 31.9416 75.4061C33.2847 74.063 34.3501 72.4686 35.0769 70.7138C35.8038 68.959 36.1779 67.0782 36.1779 65.1789Z" fill="#B5B1FD"/>
<path d="M58.4896 2.81707L47.2952 12.8966C45.5673 14.4524 45.4277 17.1144 46.9836 18.8423L47.148 19.0249C48.7038 20.7528 51.3658 20.8923 53.0937 19.3365L64.2881 9.25701C66.016 7.70119 66.1556 5.03919 64.5997 3.31127L64.4353 3.12867C62.8795 1.40075 60.2175 1.26124 58.4896 2.81707Z" fill="#B5B1FD"/>
<path d="M31.8719 59.2116C35.2172 64.7791 33.4151 72.0053 27.8464 75.3515C22.2798 78.6961 15.0535 76.8945 11.7091 71.3269C8.36283 65.7593 10.1647 58.5329 15.7317 55.1879C21.2999 51.8417 28.5265 53.6439 31.8718 59.2118L31.8718 59.2116L31.8719 59.2116Z" fill="#7E40D6"/>
<path d="M24.2732 60.4149C23.3318 59.1423 21.8938 59.3902 20.3442 60.1458L19.2186 58.2724L18.0782 58.9578L19.1743 60.7819C18.8744 60.962 18.5716 61.1521 18.2707 61.3412L17.1676 59.5048L16.0278 60.1897L17.1527 62.0629C16.9089 62.2163 16.6692 62.3667 16.4328 62.5089L16.4292 62.5031L14.8559 63.4477L15.588 64.6655C15.588 64.6655 16.4205 64.1434 16.4158 64.1672C16.8778 63.8898 17.1893 64.0677 17.3722 64.2727L18.6546 66.407C18.6865 66.388 18.7289 66.3643 18.7799 66.3425C18.7419 66.3654 18.7013 66.3896 18.6596 66.4152L20.4557 69.4053C20.5228 69.5628 20.5767 69.846 20.2542 70.0405C20.2767 70.0446 19.4251 70.5384 19.4251 70.5384L20.0168 72.0366L21.5009 71.1447C21.7774 70.9791 22.0519 70.8205 22.3197 70.6617L23.4587 72.5562L24.598 71.8718L23.4715 69.9971C23.7882 69.8156 24.0924 69.6362 24.3878 69.4583L25.5086 71.3247L26.649 70.6392L25.5128 68.7476C27.3641 67.4854 28.4159 66.1961 27.5007 64.2955C26.7642 62.765 25.6936 62.5279 24.4482 62.9206C24.9072 62.1865 24.9642 61.3449 24.2736 60.4147L24.2731 60.4148L24.2732 60.4149ZM25.1119 65.4253C25.9633 66.841 23.4418 68.1369 22.6693 68.6021L21.1612 66.0914C21.9345 65.627 24.2246 63.9483 25.1119 65.4253L25.1119 65.4253ZM22.4533 62.202C23.227 63.4904 21.1145 64.5553 20.4707 64.9422L19.1028 62.6652C19.7466 62.2783 21.6459 60.8584 22.4534 62.2019L22.4533 62.202Z" fill="#B5B1FD"/>
<path d="M36.2853 65.5548C36.2853 63.6554 35.9112 61.7746 35.1844 60.0198C34.4575 58.2651 33.3921 56.6706 32.0491 55.3276C30.706 53.9845 29.1116 52.9191 27.3568 52.1923C25.602 51.4654 23.7212 51.0913 21.8219 51.0913C17.9859 51.0913 14.3071 52.6151 11.5946 55.3276C8.88222 58.04 7.3584 61.7188 7.3584 65.5548C7.3584 69.3907 8.88222 73.0696 11.5946 75.782C14.3071 78.4944 17.9859 80.0182 21.8219 80.0182C23.7212 80.0182 25.602 79.6441 27.3568 78.9173C29.1116 78.1904 30.706 77.1251 32.0491 75.782C33.3921 74.4389 34.4575 72.8445 35.1844 71.0897C35.9112 69.3349 36.2853 67.4541 36.2853 65.5548Z" stroke="#665DA6" stroke-width="2"/>
<path d="M33.767 65.5642C33.767 62.4012 32.5105 59.3677 30.2739 57.1311C28.0374 54.8946 25.0039 53.6381 21.8409 53.6381C18.6779 53.6381 15.6445 54.8946 13.4079 57.1311C11.1713 59.3677 9.91479 62.4012 9.91479 65.5642C9.91479 68.7272 11.1713 71.7606 13.4079 73.9972C15.6445 76.2338 18.6779 77.4903 21.8409 77.4903C25.0039 77.4903 28.0374 76.2338 30.2739 73.9972C32.5105 71.7606 33.767 68.7272 33.767 65.5642Z" stroke="#4A2492" stroke-width="2"/>
<path d="M36.2853 65.5548C36.2853 67.4541 35.9112 69.3349 35.1844 71.0897C34.4575 72.8445 33.3921 74.4389 32.0491 75.782C30.706 77.1251 29.1116 78.1904 27.3568 78.9173C25.602 79.6441 23.7212 80.0182 21.8219 80.0182C17.9859 80.0182 14.3071 78.4944 11.5946 75.782C8.88222 73.0696 7.3584 69.3907 7.3584 65.5548C7.3584 61.7188 8.88222 58.04 11.5946 55.3276C14.3071 52.6151 17.9859 51.0913 21.8219 51.0913C23.7212 51.0913 25.602 51.4654 27.3568 52.1923C29.1116 52.9191 30.706 53.9845 32.0491 55.3276C33.3921 56.6706 34.4575 58.2651 35.1844 60.0198C35.9112 61.7746 36.2853 63.6554 36.2853 65.5548ZM33.7669 65.5642C33.7669 62.4012 32.5104 59.3678 30.2738 57.1312C28.0372 54.8946 25.0038 53.6381 21.8408 53.6381C18.6778 53.6381 15.6443 54.8946 13.4077 57.1312C11.1712 59.3678 9.91465 62.4012 9.91465 65.5642C9.91465 68.7272 11.1712 71.7607 13.4077 73.9973C15.6443 76.2338 18.6778 77.4903 21.8408 77.4903C25.0038 77.4903 28.0372 76.2338 30.2738 73.9973C32.5104 71.7607 33.7669 68.7272 33.7669 65.5642Z" fill="#16084E"/>
</svg>

<svg width="93" height="87" viewBox="0 0 93 87" fill="none" xmlns="http://www.w3.org/2000/svg"><path d="M58.329 39.659c-.123 1.578 1.356 2.962 2.594 3.718 1.455.884 3.402-.123 4.57-1.086a101.178 101.178 0 004.861-4.286c4.187-3.922 7.932-7.313 11.237-10.173 2.891-2.5 6.123-1.446 7.451 1.984.534 1.38-.17 3.043-1.106 4.03-1.222 1.292-2.824 2.822-4.805 4.589a7476.121 7476.121 0 00-46.405 41.807c-4.864 4.42-10.458 6.494-16.784 6.223a20.405 20.405 0 01-4.99-.822c-4.683-1.389-8.39-4.032-11.122-7.928-1.252-1.787-1.762-3.559-2.778-5.354a6.279 6.279 0 01-.747-2.25c-.318-2.305-.387-4.51-.208-6.614.504-5.92 3.057-10.917 7.66-14.993a1995.259 1995.259 0 0026.271-23.687c1.096-1.006 2.85-2.74 4.38-2.717a10.15 10.15 0 012.51.355c1.083.296 1.771 1.063 2.064 2.3.488 2.08-.028 3.784-1.55 5.113-1.828 1.593-3.799 3.03-5.17 5.06-.673 1.006-.83 2.042-.472 3.11 1.012 2.996 4.088 4.097 6.691 2.103a59.617 59.617 0 003.681-3.1A53696.604 53696.604 0 0183.679 3.072 41.681 41.681 0 0186.353.847c1.777-1.356 3.634-.832 5.16.416 2.349 1.923 1.678 5.013-.364 6.842a14502.79 14502.79 0 00-25.458 22.86 196.316 196.316 0 00-6.247 5.882c-.642.633-1.014 1.57-1.115 2.812zm-22.151 25.52a14.462 14.462 0 00-24.69-10.227 14.463 14.463 0 1024.69 10.227z" fill="#B5B1FD"/><path d="M58.49 2.817l-11.195 10.08a4.21 4.21 0 00-.311 5.945l.164.183a4.21 4.21 0 005.946.312l11.194-10.08a4.21 4.21 0 00.312-5.946l-.165-.182a4.21 4.21 0 00-5.945-.312z" fill="#B5B1FD"/><path d="M31.872 59.212c3.345 5.567 1.543 12.793-4.026 16.14-5.566 3.344-12.793 1.542-16.137-4.025-3.346-5.568-1.544-12.794 4.023-16.14 5.568-3.345 12.794-1.543 16.14 4.025z" fill="#7E40D6"/><path d="M24.273 60.415c-.941-1.273-2.38-1.025-3.929-.27l-1.125-1.873-1.14.686 1.095 1.824c-.3.18-.602.37-.903.56l-1.103-1.837-1.14.685 1.125 1.873c-.244.153-.484.304-.72.446l-.004-.006-1.573.945.732 1.217s.833-.522.828-.498c.462-.277.773-.1.956.106l1.283 2.134a1.05 1.05 0 01.125-.064l-.12.072 1.796 2.99c.067.158.12.441-.202.635.023.005-.829.498-.829.498l.592 1.499 1.484-.892c.276-.166.55-.325.819-.483l1.139 1.894 1.139-.684-1.127-1.875c.317-.181.621-.36.917-.539l1.12 1.867 1.141-.686-1.136-1.891c1.851-1.263 2.903-2.552 1.988-4.453-.737-1.53-1.807-1.767-3.053-1.374.46-.734.516-1.576-.174-2.506zm.839 5.01c.851 1.416-1.67 2.712-2.443 3.177l-1.508-2.51c.773-.465 3.064-2.144 3.95-.667zm-2.659-3.223c.774 1.288-1.338 2.353-1.982 2.74l-1.368-2.277c.644-.387 2.543-1.807 3.35-.463z" fill="#B5B1FD"/><path d="M36.285 65.555a14.465 14.465 0 00-24.69-10.227 14.463 14.463 0 1024.69 10.227z" stroke="#665DA6" stroke-width="2"/><path d="M33.767 65.564a11.926 11.926 0 10-23.852 0 11.926 11.926 0 0023.852 0z" stroke="#4A2492" stroke-width="2"/><path d="M36.285 65.555a14.465 14.465 0 11-28.929 0 14.465 14.465 0 0128.93 0zm-2.518.01a11.926 11.926 0 10-23.852 0 11.926 11.926 0 0023.852 0z" fill="#16084E"/></svg>
